resources/icons/20px/antenna.svg

<svg width="20" height="20" viewBox="0 0 20 20" xmlns="http://www.w3.org/2000/svg">
<path fill-rule="evenodd" clip-rule="evenodd" d="M2.01026 10.7581C2.11759 11.8893 2.46349 12.9809 3.0207 13.9623L3.04069 13.9973C3.07361 14.0547 3.10133 14.1141 3.12386 14.1748C3.28719 14.6153 3.17755 15.1262 2.79451 15.414C2.35863 15.7415 1.7351 15.6559 1.45215 15.1898C1.41011 15.1206 1.36894 15.0509 1.32864 14.9807C1.2955 14.923 1.26295 14.865 1.23099 14.8067C0.579306 13.6178 0.173726 12.3042 0.0447181 10.9446C-0.129488 9.10863 0.207413 7.26024 1.01817 5.60379C1.82893 3.94733 3.08197 2.54735 4.63875 1.55862C6.19553 0.569882 7.99541 0.0309102 9.83939 0.00129014C11.6834 -0.0283299 13.4996 0.452555 15.0874 1.39078C16.6751 2.329 17.9725 3.68802 18.836 5.31758C19.6995 6.94713 20.0956 8.78375 19.9805 10.6244C19.8952 11.9874 19.532 13.3134 18.9189 14.5226C18.8888 14.5819 18.8581 14.6409 18.8269 14.6996C18.7888 14.7711 18.7499 14.8421 18.7101 14.9126C18.4423 15.3875 17.8218 15.4931 17.3757 15.1798C16.9836 14.9045 16.8576 14.3973 17.0067 13.9518C17.0273 13.8904 17.0531 13.8301 17.0841 13.7718L17.103 13.7361C17.6284 12.7373 17.939 11.6352 18.01 10.5011C18.1024 9.02388 17.7845 7.54988 17.0915 6.24206C16.3984 4.93424 15.3572 3.84354 14.0829 3.09055C12.8087 2.33757 11.351 1.95163 9.8711 1.9754C8.39119 1.99917 6.94667 2.43173 5.69726 3.22525C4.44784 4.01878 3.4422 5.14235 2.79151 6.47176C2.14083 7.80117 1.87044 9.28462 2.01026 10.7581ZM6.28238 11.5296C6.29648 11.5639 6.30925 11.5986 6.32069 11.6338C6.34368 11.7045 6.36124 11.7768 6.3732 11.8496C6.44304 12.2752 6.32135 12.7196 5.97137 12.9783C5.53171 13.3033 4.90336 13.213 4.65496 12.7259C4.58105 12.581 4.51312 12.4332 4.45131 12.283C4.43206 12.2362 4.4134 12.1892 4.39534 12.1419C4.19731 11.6237 4.07117 11.0782 4.02261 10.5203C3.92665 9.41794 4.13741 8.31051 4.63157 7.32046C5.12574 6.3304 5.88407 5.49628 6.82272 4.91032C7.76137 4.32435 8.84378 4.00938 9.95028 4.00021C11.0568 3.99104 12.1443 4.28803 13.0925 4.85835C14.0407 5.42868 14.8128 6.25011 15.3233 7.23185C15.8338 8.21358 16.0629 9.31736 15.9852 10.4212C15.9459 10.9798 15.8288 11.5273 15.6394 12.0487C15.6221 12.0963 15.6042 12.1436 15.5858 12.1907C15.5265 12.3419 15.461 12.4908 15.3895 12.6369C15.1492 13.1281 14.5224 13.2288 14.0774 12.9111C13.7232 12.6582 13.5942 12.2159 13.657 11.7893C13.6677 11.7162 13.6841 11.6437 13.7059 11.5726C13.7167 11.5372 13.7289 11.5023 13.7425 11.4678C13.8906 11.0902 13.9813 10.6906 14.0101 10.2822C14.0621 9.54263 13.9086 8.8031 13.5666 8.14534C13.2246 7.48758 12.7073 6.93721 12.072 6.5551C11.4367 6.17298 10.708 5.97399 9.96669 5.98014C9.22534 5.98628 8.50012 6.19732 7.87123 6.58991C7.24233 6.98251 6.73425 7.54137 6.40316 8.20471C6.07206 8.86804 5.93086 9.61002 5.99515 10.3486C6.03065 10.7565 6.12805 11.1545 6.28238 11.5296ZM10.9937 14.1127C10.9979 14.0757 11 14.0381 11 14V9.99999C11 9.44771 10.5523 8.99999 10 8.99999C9.44771 8.99999 9 9.44771 9 9.99999V14C9 14.0381 9.00213 14.0757 9.00628 14.1127L5.2526 18.3356C4.88568 18.7484 4.92286 19.3805 5.33564 19.7474C5.74843 20.1143 6.3805 20.0771 6.74742 19.6644L9.99999 16.0052L13.2524 19.6643C13.6193 20.0771 14.2513 20.1143 14.6641 19.7474C15.0769 19.3805 15.1141 18.7484 14.7472 18.3357L10.9937 14.1127Z"/>
</svg>

<svg xmlns="http://www.w3.org/2000/svg" viewBox="0 0 20 20">
  <path d="M2.01 10.758a8 8 0 0 0 1.01 3.204l.02.035q.05.087.084.178c.163.44.054.951-.33 1.239-.435.328-1.059.242-1.342-.224a10 10 0 0 1-.221-.383 10 10 0 1 1 17.48.106c-.269.474-.89.58-1.335.267-.392-.275-.518-.783-.37-1.228a1 1 0 0 1 .078-.18l.019-.036A8.026 8.026 0 1 0 2.01 10.758m4.272.772a1.5 1.5 0 0 1 .091.32c.07.425-.052.87-.402 1.128-.44.325-1.068.235-1.316-.252a6 6 0 1 1 10.734-.09c-.24.492-.867.593-1.312.275-.354-.253-.483-.695-.42-1.122a1.5 1.5 0 0 1 .085-.321 4.021 4.021 0 0 0-5.87-4.878 4.02 4.02 0 0 0-1.59 4.94m4.712 2.583A1 1 0 0 0 11 14v-4a1 1 0 1 0-2 0v4q0 .057.006.113l-3.753 4.223a1 1 0 0 0 1.494 1.328L10 16.005l3.252 3.66a1 1 0 1 0 1.495-1.33z"/>
</svg>
